svgs/light/table-layout.svg

<svg xmlns="http://www.w3.org/2000/svg" viewBox="0 0 512 512"><!-- Font Awesome Pro 6.0.0-alpha2 by @fontawesome - https://fontawesome.com License - https://fontawesome.com/license (Commercial License) --><path d="M448 32H64C28.654 32 0 60.652 0 96V416C0 451.346 28.654 480 64 480H448C483.346 480 512 451.346 512 416V96C512 60.652 483.346 32 448 32ZM160 448H64C46.326 448 32 433.672 32 416V202.625H160V448ZM480 416C480 433.672 465.674 448 448 448H192V202.625H480V416ZM480 170.625H32V96C32 78.326 46.326 64 64 64H448C465.674 64 480 78.326 480 96V170.625Z"/></svg>

<svg xmlns="http://www.w3.org/2000/svg" viewBox="0 0 512 512"><!--! Font Awesome Pro 6.0.0-alpha3 by @fontawesome - https://fontawesome.com License - https://fontawesome.com/license (Commercial License) --><path d="M448 32H64C28.65 32 0 60.65 0 96v320c0 35.35 28.65 64 64 64h384c35.35 0 64-28.65 64-64V96C512 60.65 483.3 32 448 32zM160 448H64c-17.67 0-32-14.33-32-32V202.6h128V448zM480 416c0 17.67-14.33 32-32 32H192V202.6h288V416zM480 170.6H32V96c0-17.67 14.33-32 32-32h384c17.67 0 32 14.33 32 32V170.6z"/></svg>
